icons/show-required-parameters-16.svg

<svg id="icons" xmlns="http://www.w3.org/2000/svg" viewBox="0 0 16 16"><defs><style>.cls-1{fill:none;}</style></defs><path d="M1,3h9a1.0013,1.0013,0,0,0,1-1V1a1.0013,1.0013,0,0,0-1-1H1A1.0013,1.0013,0,0,0,0,1V2A1.0013,1.0013,0,0,0,1,3ZM1,1h9l.001,1H1ZM5,5H3V4H5ZM8,5H6V4H8ZM1,4H2V5H1V6H2V7H1A1.0013,1.0013,0,0,1,0,6V5A1.0013,1.0013,0,0,1,1,4Zm9,2h.001L10,5H9V4h1a1.0013,1.0013,0,0,1,1,1V6a1.0013,1.0013,0,0,1-1,1H9V6ZM6,6H8V7H6ZM5,7H3V6H5ZM3,8H5V9H3ZM1,8H2V9H1v1H2v1H1a1.0013,1.0013,0,0,1-1-1V9A1.0013,1.0013,0,0,1,1,8Zm2,2H4.24939c-.14008.16107-.23889.28412-.28064.33838l-.21387.27588A1.48572,1.48572,0,0,0,3.548,11H3Zm12.86182,1.25623C15.76611,11.13336,13.481,8.2464,10.5,8.2464c-2.98145,0-5.19141,2.88788-5.28613,3.01074L5,11.5332l.21387.27607C5.30859,11.93213,7.51855,14.82,10.5,14.82c2.981,0,5.26611-2.887,5.36182-3.00983L16,11.63324v-.20007Zm-5.36231,2.7655c-2.10034,0-3.85382-1.774-4.49872-2.48853.6449-.71454,2.39838-2.48858,4.49872-2.48858,2.10138,0,3.92481,1.77307,4.57538,2.48956C14.42639,12.24963,12.6076,14.02173,10.49951,14.02173ZM12.0083,11.5332a1.503,1.503,0,1,1-1.5-1.40863A1.458,1.458,0,0,1,12.0083,11.5332Z"/><rect class="cls-1" width="16" height="16"/></svg>

<svg xmlns="http://www.w3.org/2000/svg" viewBox="0 0 16 16"><path d="M1 3h9a1.001 1.001 0 0 0 1-1V1a1.001 1.001 0 0 0-1-1H1a1.001 1.001 0 0 0-1 1v1a1.001 1.001 0 0 0 1 1zm0-2h9l.001 1H1zm4 4H3V4h2zm3 0H6V4h2zM1 4h1v1H1v1h1v1H1a1.001 1.001 0 0 1-1-1V5a1.001 1.001 0 0 1 1-1zm9 2h.001L10 5H9V4h1a1.001 1.001 0 0 1 1 1v1a1.001 1.001 0 0 1-1 1H9V6zM6 6h2v1H6zM5 7H3V6h2zM3 8h2v1H3zM1 8h1v1H1v1h1v1H1a1.001 1.001 0 0 1-1-1V9a1.001 1.001 0 0 1 1-1zm2 2h1.25c-.14.161-.24.284-.281.338l-.214.276a1.486 1.486 0 0 0-.207.386H3zm12.862 1.256c-.096-.123-2.381-3.01-5.362-3.01-2.981 0-5.191 2.888-5.286 3.011L5 11.533l.214.276c.095.123 2.305 3.011 5.286 3.011 2.981 0 5.266-2.887 5.362-3.01l.138-.177v-.2zM10.5 14.022c-2.1 0-3.854-1.774-4.5-2.489.646-.714 2.4-2.488 4.5-2.488s3.924 1.773 4.575 2.49c-.649.715-2.467 2.487-4.575 2.487zm1.508-2.489a1.503 1.503 0 1 1-1.5-1.408 1.458 1.458 0 0 1 1.5 1.408z"/><path fill="none" d="M0 0h16v16H0z"/></svg>
